images/and-beyond-icon.svg

<?xml version="1.0" encoding="UTF-8" standalone="no"?><!DOCTYPE svg PUBLIC "-//W3C//DTD SVG 1.1//EN" "http://www.w3.org/Graphics/SVG/1.1/DTD/svg11.dtd"><svg width="100%" height="100%" viewBox="0 0 417 417" version="1.1" xmlns="http://www.w3.org/2000/svg" xmlns:xlink="http://www.w3.org/1999/xlink" xml:space="preserve" xmlns:serif="http://www.serif.com/" style="fill-rule:evenodd;clip-rule:evenodd;stroke-linecap:round;stroke-linejoin:round;stroke-miterlimit:1.5;"><rect id="Artboard1" x="0" y="0" width="416.667" height="416.667" style="fill:none;"/><circle cx="208.333" cy="211.241" r="178.342" style="fill:#fff;"/><path d="M275.07,45.825c44.791,18.108 80.572,53.89 98.68,98.68" style="fill:none;stroke:#1e152a;stroke-width:20.83px;"/><path d="M373.75,144.505c8.336,20.618 12.926,43.145 12.926,66.736c0,98.43 -79.913,178.342 -178.342,178.342c-23.591,0 -46.118,-4.59 -66.736,-12.926" style="fill:none;stroke:#1e152a;stroke-width:20.83px;"/><path d="M141.597,376.657c-44.791,-18.108 -80.572,-53.89 -98.68,-98.68" style="fill:none;stroke:#1e152a;stroke-width:20.83px;"/><path d="M275.07,45.825c35.934,-9.339 66.83,-5.776 85.643,13.037c18.813,18.813 22.376,49.71 13.037,85.643" style="fill:none;stroke:#ffb70d;stroke-width:20.83px;"/><path d="M284.523,287.431c-46.474,46.474 -98.542,77.692 -142.926,89.227" style="fill:none;stroke:#ffb70d;stroke-width:20.83px;"/><path d="M141.597,376.657c-35.934,9.339 -66.83,5.776 -85.643,-13.037c-18.813,-18.813 -22.376,-49.71 -13.037,-85.643" style="fill:none;stroke:#ffb70d;stroke-width:20.83px;"/><path d="M52.999,280.597c-1.446,5.564 -7.138,8.908 -12.702,7.462c-5.564,-1.446 -8.908,-7.138 -7.462,-12.702c2.817,-10.838 6.747,-22.116 11.747,-33.653c2.286,-5.275 8.424,-7.702 13.7,-5.416c5.275,2.286 7.702,8.424 5.416,13.7c-4.548,10.495 -8.136,20.75 -10.699,30.61Zm31.226,-69.329c-3.047,4.875 -9.479,6.359 -14.354,3.312c-4.875,-3.047 -6.359,-9.479 -3.312,-14.354c11.665,-18.663 25.81,-37.458 42.21,-55.673c3.847,-4.273 10.439,-4.618 14.711,-0.772c4.273,3.847 4.618,10.439 0.772,14.711c-15.548,17.269 -28.967,35.082 -40.026,52.776Zm71.36,-84.11c-4.273,3.847 -10.864,3.501 -14.711,-0.772c-3.847,-4.273 -3.501,-10.864 0.772,-14.711c18.215,-16.4 37.01,-30.545 55.674,-42.21c4.875,-3.047 11.307,-1.563 14.354,3.312c3.047,4.875 1.563,11.307 -3.312,14.354c-17.694,11.059 -35.507,24.478 -52.776,40.026Zm91.495,-60.553c-5.275,2.286 -11.414,-0.141 -13.7,-5.416c-2.286,-5.275 0.141,-11.414 5.416,-13.7c11.537,-4.999 22.815,-8.93 33.653,-11.747c5.564,-1.446 11.256,1.897 12.702,7.462c1.446,5.564 -1.897,11.256 -7.462,12.702c-9.859,2.562 -20.115,6.151 -30.61,10.699Z" style="fill:#ffb70d;"/><g><path d="M306.437,254.033c0.651,-5.907 2.595,-13.689 8.019,-19.113c9.865,-9.865 27.531,-8.218 27.531,-8.218c0,0 1.647,17.666 -8.218,27.531c-5.424,5.424 -13.206,7.368 -19.113,8.019l-8.218,-8.218" style="fill:#1e152a;"/><path d="M308.922,243.603c0,0 -8.334,-2.877 -16.371,5.16c0,0 6.104,-2.513 13.887,5.27" style="fill:#1e152a;"/><path d="M325.085,259.766c0,0 2.877,8.334 -5.16,16.371c0,0 2.513,-6.104 -5.27,-13.887" style="fill:#1e152a;"/><path d="M333.569,226.901l8.218,8.218" style="fill:none;"/><path d="M332.331,236.358c2.268,2.268 2.268,5.95 0,8.218c-2.268,2.268 -5.95,2.268 -8.218,0c-2.268,-2.268 -2.268,-5.95 0,-8.218c2.268,-2.268 5.95,-2.268 8.218,-0Z" style="fill:#1e152a;"/><path d="M317.004,251.685l-10.766,10.766" style="fill:none;"/><path d="M313.985,261.581c-0.527,1.328 -1.28,2.62 -2.355,3.695c-4.198,4.198 -11.715,3.497 -11.715,3.497c0,0 -0.701,-7.517 3.497,-11.715c1.075,-1.075 3.695,-2.355 3.695,-2.355l6.878,6.878Z" style="fill:#1e152a;"/><path d="M306.437,254.033" style="fill:none;"/></g><path d="M42.917,277.977c-8.336,-20.618 -12.926,-43.145 -12.926,-66.736c0,-98.43 79.913,-178.342 178.342,-178.342c23.591,0 46.118,4.59 66.736,12.926" style="fill:none;stroke:#1e152a;stroke-width:20.83px;"/><path d="M275.07,45.825c22.979,9.29 43.586,23.231 60.653,40.655" style="fill:none;stroke:#1e152a;stroke-width:20.83px;"/><path d="M79.5,334.512c-15.53,-16.225 -28.029,-35.375 -36.583,-56.535" style="fill:none;stroke:#1e152a;stroke-width:20.83px;"/></svg>

<?xml version="1.0" encoding="UTF-8" standalone="no"?>
<!DOCTYPE svg PUBLIC "-//W3C//DTD SVG 1.1//EN" "http://www.w3.org/Graphics/SVG/1.1/DTD/svg11.dtd">
<svg width="100%" height="100%" viewBox="0 0 417 417" version="1.1" xmlns="http://www.w3.org/2000/svg" xmlns:xlink="http://www.w3.org/1999/xlink" xml:space="preserve" xmlns:serif="http://www.serif.com/" style="fill-rule:evenodd;clip-rule:evenodd;stroke-linecap:round;stroke-linejoin:round;stroke-miterlimit:1.5;">
    <rect id="Artboard1" x="0" y="0" width="416.667" height="416.667" style="fill:none;"/>
    <circle cx="208.333" cy="211.241" r="178.342" style="fill:white;"/>
    <path d="M275.07,45.825C319.861,63.933 355.642,99.715 373.75,144.505" style="fill:none;stroke:rgb(30,21,42);stroke-width:20.83px;"/>
    <path d="M373.75,144.505C382.086,165.123 386.676,187.65 386.676,211.241C386.676,309.671 306.763,389.583 208.334,389.583C184.743,389.583 162.216,384.993 141.598,376.657" style="fill:none;stroke:rgb(30,21,42);stroke-width:20.83px;"/>
    <path d="M141.597,376.657C96.806,358.549 61.025,322.767 42.917,277.977" style="fill:none;stroke:rgb(30,21,42);stroke-width:20.83px;"/>
    <path d="M275.07,45.825C311.004,36.486 341.9,40.049 360.713,58.862C379.526,77.675 383.089,108.572 373.75,144.505" style="fill:none;stroke:rgb(255,183,13);stroke-width:20.83px;"/>
    <path d="M284.523,287.431C238.049,333.905 185.981,365.123 141.597,376.658" style="fill:none;stroke:rgb(255,183,13);stroke-width:20.83px;"/>
    <path d="M141.597,376.657C105.663,385.996 74.767,382.433 55.954,363.62C37.141,344.807 33.578,313.91 42.917,277.977" style="fill:none;stroke:rgb(255,183,13);stroke-width:20.83px;"/>
    <g>
        <path d="M306.437,254.033C307.088,248.126 309.032,240.344 314.456,234.92C324.321,225.055 341.987,226.702 341.987,226.702C341.987,226.702 343.634,244.368 333.769,254.233C328.345,259.657 320.563,261.601 314.656,262.252L306.438,254.034" style="fill:rgb(30,21,42);"/>
        <path d="M308.922,243.603C308.922,243.603 300.588,240.726 292.551,248.763C292.551,248.763 298.655,246.25 306.438,254.033" style="fill:rgb(30,21,42);"/>
        <path d="M325.085,259.766C325.085,259.766 327.962,268.1 319.925,276.137C319.925,276.137 322.438,270.033 314.655,262.25" style="fill:rgb(30,21,42);"/>
        <path d="M333.569,226.901L341.787,235.119" style="fill:none;"/>
        <path d="M332.331,236.358C334.599,238.626 334.599,242.308 332.331,244.576C330.063,246.844 326.381,246.844 324.113,244.576C321.845,242.308 321.845,238.626 324.113,236.358C326.381,234.09 330.063,234.09 332.331,236.358Z" style="fill:rgb(30,21,42);"/>
        <path d="M317.004,251.685L306.238,262.451" style="fill:none;"/>
        <path d="M313.985,261.581C313.458,262.909 312.705,264.201 311.63,265.276C307.432,269.474 299.915,268.773 299.915,268.773C299.915,268.773 299.214,261.256 303.412,257.058C304.487,255.983 307.107,254.703 307.107,254.703L313.985,261.581Z" style="fill:rgb(30,21,42);"/>
    </g>
    <path d="M42.917,277.977C34.581,257.359 29.991,234.832 29.991,211.241C29.991,112.811 109.904,32.899 208.333,32.899C231.924,32.899 254.451,37.489 275.069,45.825" style="fill:none;stroke:rgb(30,21,42);stroke-width:20.83px;"/>
    <path d="M275.07,45.825C298.049,55.115 318.656,69.056 335.723,86.48" style="fill:none;stroke:rgb(30,21,42);stroke-width:20.83px;"/>
    <path d="M79.5,334.512C63.97,318.287 51.471,299.137 42.917,277.977" style="fill:none;stroke:rgb(30,21,42);stroke-width:20.83px;"/>
</svg>
